icons-rebrand/svg/audio-call-light.svg

<svg width="32" height="32" viewBox="0 0 32 32" fill="none" xmlns="http://www.w3.org/2000/svg">
<path d="M27.9971 13.5C27.8645 13.5 27.7373 13.4473 27.6435 13.3536C27.5498 13.2598 27.4971 13.1326 27.4971 13C27.4712 10.8591 26.6276 8.80905 25.1391 7.27C24.3574 6.41575 23.41 5.7296 22.3546 5.25338C21.2991 4.77715 20.1578 4.52082 19.0001 4.5C18.8675 4.5 18.7403 4.44732 18.6465 4.35355C18.5528 4.25979 18.5001 4.13261 18.5001 4C18.5001 3.86739 18.5528 3.74021 18.6465 3.64645C18.7403 3.55268 18.8675 3.5 19.0001 3.5C20.2941 3.52089 21.5703 3.80511 22.7509 4.33532C23.9316 4.86554 24.9918 5.63065 25.8671 6.584C27.5309 8.30834 28.4719 10.604 28.4971 13C28.4968 13.1325 28.444 13.2596 28.3503 13.3533C28.2566 13.447 28.1296 13.4997 27.9971 13.5ZM24.0001 14.493C23.9343 14.4934 23.8691 14.4807 23.8083 14.4558C23.7474 14.4308 23.6921 14.3939 23.6456 14.3474C23.5991 14.3009 23.5623 14.2457 23.5373 14.1848C23.5123 14.124 23.4997 14.0588 23.5001 13.993C23.5541 13.262 23.4564 12.5276 23.2131 11.8362C22.9698 11.1447 22.5861 10.5111 22.0861 9.975C20.9705 8.96609 19.5029 8.43631 18.0001 8.5C17.9174 8.49965 17.8361 8.47881 17.7635 8.43935C17.6909 8.39989 17.6292 8.34304 17.5839 8.27389C17.5386 8.20473 17.5112 8.12543 17.5041 8.04308C17.4969 7.96073 17.5103 7.8779 17.5431 7.802C17.5849 7.70734 17.6546 7.6277 17.7428 7.57373C17.8311 7.51976 17.9338 7.49404 18.0371 7.5C19.7895 7.43497 21.4963 8.06754 22.7831 9.259C23.3817 9.88602 23.8434 10.6306 24.139 11.4456C24.4346 12.2605 24.5575 13.128 24.5001 13.993C24.5001 14.1256 24.4474 14.2528 24.3536 14.3466C24.2599 14.4403 24.1327 14.493 24.0001 14.493ZM21.5171 29.516C18.4221 29.516 13.8971 27.93 8.98307 23.016C4.85507 18.888 3.34607 15.262 2.80607 12.947C2.20107 10.349 2.52207 7.959 3.62507 6.857L5.09607 5.386C5.67175 4.83592 6.43733 4.52895 7.23357 4.52895C8.02981 4.52895 8.7954 4.83592 9.37107 5.386L12.1241 8.138C12.6876 8.70301 13.0041 9.46847 13.0041 10.2665C13.0041 11.0645 12.6876 11.83 12.1241 12.395C12.1211 12.398 10.6241 13.871 10.2611 14.233C10.295 16.2134 11.0954 18.1035 12.4941 19.506C13.1893 20.2148 14.0223 20.7739 14.9417 21.1488C15.861 21.5237 16.8474 21.7065 17.8401 21.686C18.1291 21.376 19.6021 19.879 19.6021 19.879C20.1752 19.3302 20.9379 19.0236 21.7315 19.023C22.525 19.0225 23.2882 19.328 23.8621 19.876L26.6141 22.629C26.8947 22.9096 27.1174 23.2428 27.2692 23.6094C27.4211 23.9761 27.4993 24.3691 27.4993 24.766C27.4993 25.1629 27.4211 25.5559 27.2692 25.9226C27.1174 26.2892 26.8947 26.6224 26.6141 26.903L25.1431 28.375C24.1233 29.2023 22.8268 29.6102 21.5171 29.516ZM9.69007 22.31C16.8511 29.47 23.0531 29.047 24.4361 27.669L25.9071 26.197C26.2854 25.8173 26.4979 25.3031 26.4979 24.767C26.4979 24.2309 26.2854 23.7167 25.9071 23.337L23.1541 20.584C22.7713 20.218 22.2621 20.0138 21.7326 20.0138C21.203 20.0138 20.6938 20.218 20.3111 20.584C20.3111 20.584 18.8381 22.082 18.4751 22.447C17.7751 23.141 14.0891 22.517 11.7871 20.214C10.7189 19.1142 9.94803 17.7608 9.54707 16.281C9.48707 16.059 8.97507 14.105 9.55407 13.527C9.91807 13.163 11.4201 11.687 11.4201 11.687C11.7953 11.3095 12.0057 10.7987 12.0052 10.2664C12.0046 9.73409 11.7931 9.2237 11.4171 8.847L8.66407 6.092C8.2787 5.72447 7.76661 5.51943 7.23407 5.51943C6.70154 5.51943 6.18945 5.72447 5.80407 6.092L4.33107 7.564C3.62307 8.271 3.17807 10.14 3.77907 12.72C4.28907 14.908 5.72807 18.347 9.68907 22.31H9.69007Z" fill="#0F0F0F"/>
</svg>

<svg width="32" height="32" viewBox="0 0 32 32" fill="none" xmlns="http://www.w3.org/2000/svg"><path d="M27.997 13.5a.5.5 0 0 1-.5-.5 8.388 8.388 0 0 0-2.358-5.73A8.529 8.529 0 0 0 19 4.5a.5.5 0 0 1 0-1 9.531 9.531 0 0 1 6.867 3.084A9.382 9.382 0 0 1 28.497 13a.501.501 0 0 1-.5.5zM24 14.493a.497.497 0 0 1-.5-.5 5.316 5.316 0 0 0-1.414-4.018A5.73 5.73 0 0 0 18 8.5a.5.5 0 0 1-.457-.698.508.508 0 0 1 .494-.302 6.624 6.624 0 0 1 4.746 1.759 6.255 6.255 0 0 1 1.717 4.734.5.5 0 0 1-.5.5zM21.517 29.516c-3.095 0-7.62-1.586-12.534-6.5-4.128-4.128-5.637-7.754-6.177-10.069-.605-2.598-.284-4.988.819-6.09l1.471-1.471a3.094 3.094 0 0 1 4.275 0l2.753 2.752a3.014 3.014 0 0 1 0 4.257c-.003.003-1.5 1.476-1.863 1.838a7.653 7.653 0 0 0 2.233 5.273 7.278 7.278 0 0 0 5.346 2.18c.289-.31 1.762-1.807 1.762-1.807a3.082 3.082 0 0 1 4.26-.003l2.752 2.753a3.022 3.022 0 0 1 0 4.274l-1.471 1.472a5.167 5.167 0 0 1-3.626 1.141zM9.69 22.31c7.161 7.16 13.363 6.737 14.746 5.359l1.471-1.472a2.026 2.026 0 0 0 0-2.86l-2.753-2.753a2.057 2.057 0 0 0-2.843 0s-1.473 1.498-1.836 1.863c-.7.694-4.386.07-6.688-2.233a9.037 9.037 0 0 1-2.24-3.933c-.06-.222-.572-2.176.007-2.754.364-.364 1.866-1.84 1.866-1.84a2.012 2.012 0 0 0-.003-2.84L8.664 6.092a2.072 2.072 0 0 0-2.86 0L4.331 7.564c-.708.707-1.153 2.576-.552 5.156.51 2.188 1.949 5.627 5.91 9.59z" fill="#0F0F0F"/></svg>
